src/icons/icons_set_02/014-livre.svg

<svg height="50" viewBox="0 0 50 50" width="50" xmlns="http://www.w3.org/2000/svg"><path d="m39.6800001 12h7.0699999v30h-21.75-21.49902344v-30h6.81902334v-3.13457371l1.4459604-.20341934c5.6581177-.79599039 10.0869859-.21099453 13.2340397 1.85501315 3.1470538-2.06600768 7.575922-2.65100354 13.2340397-1.85501315l1.4459604.20341934zm0 4v20.3194385l-1.6531186.0264548c-4.1903029.0670572-7.3008344.4155009-9.2881593 1.019759-.648794.1972697-1.1503025.4140944-1.5035301.6343477h15.5148079v-22zm-16.9151922 22c-.3532276-.2202533-.8547361-.437078-1.5035301-.6343477-1.9873249-.6042581-5.0978564-.9527018-9.2881593-1.019759l-1.6531186-.0264548v-20.3194385h-2.81902334v22zm3.9151922-24.5625607v21.069124c2.1770643-.8739672 5.4010969-1.3306316 9.6399998-1.4787068v-21.2121687c-4.3076305-.4233744-7.5068311.1441024-9.6399998 1.6217515zm-3.3600002 0c-2.1331687-1.4776491-5.3323693-2.0451259-9.6399998-1.6217515v21.2121687c4.2389029.1480752 7.4629355.6047396 9.6399998 1.4787068z"/></svg>

<?xml version="1.0" encoding="UTF-8"?>
<svg width="50px" height="50px" viewBox="0 0 50 50" version="1.1" xmlns="http://www.w3.org/2000/svg" xmlns:xlink="http://www.w3.org/1999/xlink">
    <!-- Generator: Sketch 52.4 (67378) - http://www.bohemiancoding.com/sketch -->
    <title>014-livre</title>
    <desc>Created with Sketch.</desc>
    <g id="014-livre" stroke="none" stroke-width="1" fill="none" fill-rule="evenodd">
        <path d="M39.6800001,12 L46.75,12 L46.75,42 L25,42 L3.50097656,42 L3.50097656,12 L10.3199999,12 L10.3199999,8.86542629 L11.7659603,8.66200695 C17.424078,7.86601656 21.8529462,8.45101242 25,10.5170201 C28.1470538,8.45101242 32.575922,7.86601656 38.2340397,8.66200695 L39.6800001,8.86542629 L39.6800001,12 Z M39.6800001,16 L39.6800001,36.3194385 L38.0268815,36.3458933 C33.8365786,36.4129505 30.7260471,36.7613942 28.7387222,37.3656523 C28.0899282,37.562922 27.5884197,37.7797467 27.2351921,38 L42.75,38 L42.75,16 L39.6800001,16 Z M22.7648079,38 C22.4115803,37.7797467 21.9100718,37.562922 21.2612778,37.3656523 C19.2739529,36.7613942 16.1634214,36.4129505 11.9731185,36.3458933 L10.3199999,36.3194385 L10.3199999,16 L7.50097656,16 L7.50097656,38 L22.7648079,38 Z M26.6800001,13.4374393 L26.6800001,34.5065633 C28.8570644,33.6325961 32.081097,33.1759317 36.3199999,33.0278565 L36.3199999,11.8156878 C32.0123694,11.3923134 28.8131688,11.9597902 26.6800001,13.4374393 Z M23.3199999,13.4374393 C21.1868312,11.9597902 17.9876306,11.3923134 13.6800001,11.8156878 L13.6800001,33.0278565 C17.918903,33.1759317 21.1429356,33.6325961 23.3199999,34.5065633 L23.3199999,13.4374393 Z" id="Combined-Shape" fill="#000000" fill-rule="nonzero"></path>
    </g>
</svg>
